X:767
T:Fermoy lasses
O:ireland
R:Reel
M:4/4
K:G
BA|\
GEEE BEEE|GFGA BcBA|GEEE BEEE|AFDF AcBA|\
GEEE BEEE|GFGA BcBA|
G2GF GBdB|AFDF Ac::\
BA|\
G2BG dGBG|G2Bd efg2|
G2BG dGBG|AFDF AcBA|\
G2BG dGBG|G2Bd efg2|gage dedB|AFDF Ac:|
